X:29
T:Brenda Stubbert's
M:4/4
L:1/8
R:reel
K:G
|:A2BA GAAB|A2Bd eddB|G2BA BGGB|c2BA BGGB|
A2BA GAAB|A2Bd edda|gedB GABd|e2dB eAA2:|
|:A2a2 A2g2|Aage ageg|G2BA BGGB|c2BA BGGB|
[1 A2a2 A2g2|Aage agea|gedB GABd|e2dB eAA2:|
[2 A2BA GAAB|A2Bd edda|gedB GABd|e2dB eAA2||
